img/footer/footer-logo.svg

<svg width="90" height="29" viewBox="0 0 90 29" fill="none" xmlns="http://www.w3.org/2000/svg">
<path fill-rule="evenodd" clip-rule="evenodd" d="M21.0365 1.1604V21.6448C21.0365 21.9156 21.1273 22.1422 21.3088 22.3245C21.4903 22.5068 21.7159 22.5979 21.9856 22.5979H25.471C25.7407 22.5979 25.9663 22.5068 26.1478 22.3245C26.3293 22.1422 26.4201 21.9156 26.4201 21.6448V12.2477C27.9035 10.7581 29.2934 9.42603 30.5901 9.42603C32.5713 9.42603 33.5619 10.1864 33.5619 12.676V21.6448C33.5619 21.9156 33.6527 22.1422 33.8342 22.3245C34.0158 22.5068 34.2414 22.5979 34.5111 22.5979H37.9809C38.2609 22.5979 38.4917 22.5068 38.6732 22.3245C38.8548 22.1422 38.9455 21.9156 38.9455 21.6448V12.676C38.9455 10.1343 38.3128 8.24634 37.0473 7.01196C35.7818 5.77758 34.1402 5.1604 32.1227 5.1604C30.1051 5.1604 28.2043 5.9156 26.4201 7.42603V1.1604C26.4201 0.879149 26.3293 0.64738 26.1478 0.465088C25.9663 0.282795 25.7407 0.19165 25.471 0.19165H21.9856C21.7159 0.19165 21.4903 0.282795 21.3088 0.465088C21.1273 0.64738 21.0365 0.879149 21.0365 1.1604ZM2.39617 20.6292C0.798715 19.1083 0 16.9182 0 14.0588C0 11.1994 0.803902 9.00155 2.41173 7.46509C4.01956 5.92862 6.24974 5.1604 9.10233 5.1604C11.9549 5.1604 14.1799 5.90779 15.7774 7.40259C17.3748 8.89739 18.1735 11.0406 18.1735 13.8323V14.7229C18.1735 15.0042 18.0828 15.2359 17.9013 15.4182C17.7197 15.6005 17.4889 15.6917 17.2089 15.6917H5.49252C5.59625 16.9729 5.9619 17.9052 6.58947 18.4885C7.21704 19.0719 8.22062 19.3635 9.60024 19.3635C10.9799 19.3635 11.9238 19.051 12.4321 18.426C12.9404 17.801 13.9142 17.8966 15.4164 18.1073C16.9186 18.318 17.2575 19.1125 17.2089 19.3635C16.7323 21.8245 14.2357 22.9199 9.08677 22.9105C6.2238 22.9105 3.99362 22.15 2.39617 20.6292ZM5.4614 12.3948H12.6966C12.5929 9.93643 11.3922 8.70728 9.09455 8.70728C6.79692 8.70728 5.58588 9.93643 5.4614 12.3948ZM45.7762 24.2229L47.8145 24.4885C49.0526 24.4885 49.9748 23.716 50.581 22.1709C50.592 22.143 50.5033 22.1286 50.3389 22.1019C49.7121 21.9999 47.9841 21.7187 46.4764 19.8299C44.7481 17.6649 44.4913 16.8291 43.8218 14.6501L43.8213 14.6486C43.7537 14.4285 43.6818 14.1946 43.6038 13.9443L41.2854 6.39745C41.2543 6.31412 41.2387 6.21777 41.2387 6.10839C41.2387 5.99901 41.3036 5.8662 41.4332 5.70995C41.5629 5.5537 41.7574 5.47037 42.0167 5.45995L45.076 5.4729C45.3768 5.4729 45.6647 5.57446 45.9396 5.77759C46.2144 5.98071 46.3934 6.23332 46.4764 6.5354L48.5147 13.1604C49.0229 14.7854 49.539 15.9104 50.0628 16.5354C50.5867 17.1604 51.2065 17.4729 51.9222 17.4729L55.0186 6.5354C55.1015 6.23332 55.2649 5.98071 55.5087 5.77759C55.7524 5.57446 56.0247 5.4729 56.3256 5.4729H59.6086C59.8679 5.4729 60.0598 5.55623 60.1843 5.7229C60.3088 5.88957 60.371 6.02759 60.371 6.13696C60.371 6.24634 60.3607 6.33748 60.3399 6.4104L56.2633 21.0042C55.5372 23.5875 54.6373 25.4312 53.5637 26.5354C52.4901 27.6396 51.1079 28.1917 49.4171 28.1917L48.7672 28.1883C47.4163 28.1739 46.4375 28.1125 45.8306 28.0042C45.1305 27.8791 44.6922 27.7255 44.5159 27.5432C44.3395 27.3609 44.2513 27.15 44.2513 26.9104V25.1917C44.2513 24.9104 44.3395 24.6786 44.5159 24.4963C44.6922 24.314 44.9204 24.2229 45.2005 24.2229H45.7762ZM62.1448 21.4729C60.7756 20.5146 60.091 19.1604 60.091 17.4104C60.091 15.6604 60.7782 14.3167 62.1526 13.3792C63.527 12.4416 65.2982 11.9729 67.4662 11.9729H72.6164C72.6164 10.7541 72.3623 9.90519 71.854 9.42603C71.3457 8.94686 70.4562 8.70728 69.1855 8.70728C67.9995 8.70728 67.1434 8.98176 66.617 9.53075L66.5093 9.65259C65.9958 10.2828 64.3795 10.0685 62.9365 9.79056C61.4935 9.5126 61.4001 8.77645 61.5289 8.39335C62.2533 6.23804 65.0155 5.1604 69.8157 5.1604C72.2845 5.1604 74.2657 5.71508 75.7594 6.82446C77.2532 7.93384 78 9.64997 78 11.9729V21.6448C78 21.926 77.9118 22.1552 77.7355 22.3323C77.5591 22.5094 77.3309 22.5979 77.0509 22.5979H74.0479C73.7678 22.5979 73.5396 22.5068 73.3633 22.3245C73.1869 22.1422 73.0987 21.9156 73.0987 21.6448V21.1604C71.4598 22.3375 69.5693 22.9234 67.4273 22.9182C65.2852 22.913 63.5244 22.4312 62.1448 21.4729ZM67.8396 15.5198H72.6164V17.9573C71.133 18.8948 69.5927 19.3635 67.9952 19.3635C67.1965 19.3635 66.5793 19.1812 66.1436 18.8167C65.708 18.4521 65.4901 17.9885 65.4901 17.426C65.4901 16.8635 65.7002 16.4052 66.1203 16.051C66.5404 15.6969 67.1135 15.5198 67.8396 15.5198Z" fill="url(#paint0_linear)"/>
<path fill-rule="evenodd" clip-rule="evenodd" d="M86 14.1917C88.2091 14.1917 90 12.4008 90 10.1917C90 7.98251 88.2091 6.19165 86 6.19165C83.7909 6.19165 82 7.98251 82 10.1917C82 12.4008 83.7909 14.1917 86 14.1917Z" fill="#1576D8"/>
<defs>
<linearGradient id="paint0_linear" x1="0" y1="0.19165" x2="0" y2="28.1917" gradientUnits="userSpaceOnUse">
<stop stop-color="#254A72"/>
<stop offset="1" stop-color="#10243E"/>
</linearGradient>
</defs>
</svg>

<svg width="90" height="29" fill="none" xmlns="http://www.w3.org/2000/svg"><path fill-rule="evenodd" clip-rule="evenodd" d="M21.037 1.16v20.485c0 .27.09.497.272.68a.917.917 0 00.677.273h3.485c.27 0 .495-.091.677-.273a.925.925 0 00.272-.68v-9.397c1.483-1.49 2.873-2.822 4.17-2.822 1.981 0 2.972.76 2.972 3.25v8.969c0 .27.09.497.272.68a.917.917 0 00.677.273h3.47a.936.936 0 00.965-.953v-8.969c0-2.542-.633-4.43-1.899-5.664-1.265-1.234-2.907-1.852-4.924-1.852-2.018 0-3.919.756-5.703 2.266V1.16a.944.944 0 00-.272-.695.917.917 0 00-.677-.273h-3.485a.917.917 0 00-.677.273.944.944 0 00-.273.695zM2.396 20.63C.798 19.107 0 16.917 0 14.058c0-2.86.804-5.057 2.412-6.594C4.02 5.93 6.25 5.16 9.102 5.16c2.853 0 5.078.748 6.675 2.243 1.598 1.494 2.397 3.638 2.397 6.43v.89c0 .281-.091.513-.273.695a.936.936 0 01-.692.274H5.493c.103 1.28.469 2.213 1.096 2.796.628.584 1.632.875 3.011.875 1.38 0 2.324-.312 2.832-.937s1.482-.53 2.984-.319c1.503.211 1.841 1.006 1.793 1.256-.477 2.462-2.973 3.557-8.122 3.547-2.863 0-5.093-.76-6.69-2.28zm3.064-8.235h7.236c-.104-2.459-1.305-3.688-3.602-3.688-2.298 0-3.51 1.23-3.634 3.688zm40.315 11.828l2.038.265c1.239 0 2.16-.772 2.767-2.317.011-.028-.078-.042-.242-.07-.627-.101-2.355-.382-3.863-2.271-1.728-2.165-1.985-3-2.654-5.18v-.001l-.218-.705-2.319-7.547a.824.824 0 01-.046-.289c0-.109.065-.242.194-.398.13-.156.324-.24.584-.25l3.059.013c.3 0 .589.101.864.305.274.203.453.455.536.757l2.039 6.625c.508 1.625 1.024 2.75 1.548 3.375s1.143.938 1.86.938l3.096-10.938c.083-.302.246-.554.49-.757.243-.204.516-.305.817-.305h3.283c.259 0 .45.083.575.25.125.167.187.305.187.414 0 .11-.01.2-.031.273l-4.077 14.594c-.726 2.583-1.626 4.427-2.7 5.531-1.073 1.105-2.455 1.657-4.146 1.657l-.65-.004c-1.35-.014-2.33-.075-2.936-.184-.7-.125-1.139-.279-1.315-.46a.883.883 0 01-.265-.634v-1.718a.96.96 0 01.265-.696.91.91 0 01.684-.273h.576zm16.369-2.75c-1.37-.958-2.054-2.313-2.054-4.063 0-1.75.687-3.093 2.062-4.03 1.374-.938 3.145-1.407 5.313-1.407h5.15c0-1.219-.254-2.068-.762-2.547-.508-.48-1.398-.719-2.668-.719-1.187 0-2.043.275-2.569.824l-.108.122c-.513.63-2.13.415-3.572.138-1.444-.278-1.537-1.015-1.408-1.398.724-2.155 3.486-3.233 8.287-3.233 2.468 0 4.45.555 5.943 1.664C77.253 7.934 78 9.65 78 11.973v9.672c0 .281-.088.51-.264.687a.924.924 0 01-.685.266h-3.003a.91.91 0 01-.685-.273.94.94 0 01-.264-.68v-.485c-1.64 1.177-3.53 1.763-5.672 1.758-2.142-.005-3.903-.487-5.282-1.445zm5.695-5.953h4.776v2.437c-1.483.938-3.023 1.406-4.62 1.406-.8 0-1.417-.182-1.852-.546a1.735 1.735 0 01-.654-1.391c0-.563.21-1.02.63-1.375.42-.354.993-.531 1.72-.531z" fill="url(#prefix__paint0_linear)"/><path fill-rule="evenodd" clip-rule="evenodd" d="M86 14.192a4 4 0 100-8 4 4 0 000 8z" fill="#1576D8"/><defs><linearGradient id="prefix__paint0_linear" x1="0" y1=".192" x2="0" y2="28.192" gradientUnits="userSpaceOnUse"><stop stop-color="#254A72"/><stop offset="1" stop-color="#10243E"/></linearGradient></defs></svg>
